icon-themes/breeze_svg/cmd/sc_bezierdelete.svg

<svg viewBox="0 0 16 16" xmlns="http://www.w3.org/2000/svg"><path d="m9.8339844 9-.8339844.8339844 1.666016 1.6660156-1.666016 1.666016.8339844.833984 1.6660156-1.666016 1.666016 1.666016.833984-.833984-1.666016-1.666016 1.666016-1.6660156-.833984-.8339844-1.666016 1.666016z" fill="#da4453"/><path d="m6 4v1h-4v1h4v2h4v-2h4v-1h-4v-1zm1 1h2v2h-2z" fill="#4d4d4d"/></svg>

<svg xmlns="http://www.w3.org/2000/svg" viewBox="0 0 16 16">
 <path 
     style="fill:#da4453" 
     d="M 9.8339844 9 L 9 9.8339844 L 10.666016 11.5 L 9 13.166016 L 9.8339844 14 L 11.5 12.333984 L 13.166016 14 L 14 13.166016 L 12.333984 11.5 L 14 9.8339844 L 13.166016 9 L 11.5 10.666016 L 9.8339844 9 z "
     />
 <path 
     style="fill:#4d4d4d" 
     d="M 6 4 L 6 5 L 2 5 L 2 6 L 6 6 L 6 8 L 10 8 L 10 6 L 14 6 L 14 5 L 10 5 L 10 4 L 6 4 z M 7 5 L 9 5 L 9 7 L 7 7 L 7 5 z "
     />
 </svg>
